X: 1
T: Martyn Bennett's
M: 6/8
L: 1/8
R: jig
K: Amix
ccc BcA|ccc Bca|ccc BcA|cBG A2 A|
ccc BcA|ccc Bca|ccc BcA|cBG A2 e||
fdd def|eAB cde|fdc def|eGB A3|
fdd def|eAB cde|fdc def|eGB A3||
